X: 05088
T: TONY'S QUADRILLE
C: Bob McQuillen 9 Nov 80
B: Bob's Note Book 5 #88
%R: jig
Z: 2021 John Chambers <jc:trillian.mit.edu>
M: 6/8
L: 1/8
K: G	% and Em
B,2C \
| DB,D EDB, | DGB d2D | DB,D GBd | c2B A2G | FGA AFD | FGA A2d | fed fga | b2g dBc |
| dBd  edB  | GBd g2d | gba  gfg | a2g e2f | gag f2e | dge d2B | cde fga | g3 ||
|| G2F \
| EFG GFE | B2G E2B, | EFG GFE | F2G A2G | FGA AGF | BcB B2c | BcB AGA | BGE E2e |
| edB dBA | BGE E2e  | edB ded | c2B A2B | cde ABc | B2B GFE | BcB AGF | E3 |]
%%begintext align
%% Tony Parkes, great
%% piano player and caller for "Yankee Ingenuity",
%% always makes me feel so welcome whenever
%% we meet - I sure hope you like this tune, Tony -
%%endtext

%%sep 1 1 500

%%sep 1 1 500

